X: 142
T: Gandy Dancer's Reel
B: NEFR #142
R: reel
Z: 2012 John Chambers <jc:trillian.mit.edu>
M: C|
L: 1/8
K: D
AG |\
FD A,D FD A,D | FA Bc d2 cd | BE EE cE EE | df ed B2 AG |
FD A,D FD A,D | FA Bc d2 cd | BA GB AF DF | ED CE D2 :|
|: fg |\
a2 ab ag fe | de fg a2 gf | ed ef gf ec | df ed B2 ((3ABc) |
dc df ec AF | GF GB AF DF | GF ED CA, CE | ((3DED) CE D2 :|
